svgs/duotone/wind.svg

<svg xmlns="http://www.w3.org/2000/svg" viewBox="0 0 512 512"><!-- Font Awesome Pro 6.0.0-alpha2 by @fontawesome - https://fontawesome.com License - https://fontawesome.com/license (Commercial License) --><defs><style>.fa-secondary{opacity:.4}</style></defs><path d="M416 224H32C14.312 224 0 238.312 0 256S14.312 288 32 288H416C433.656 288 448 302.344 448 320S433.656 352 416 352H384C366.312 352 352 366.312 352 384S366.312 416 384 416H416C468.938 416 512 372.938 512 320S468.938 224 416 224Z" class="fa-secondary"/><path d="M160 320H32C14.312 320 0 334.312 0 352S14.312 384 32 384H160C177.656 384 192 398.344 192 416S177.656 448 160 448H128C110.312 448 96 462.312 96 480S110.312 512 128 512H160C212.938 512 256 468.938 256 416S212.938 320 160 320ZM352 0H320C302.312 0 288 14.312 288 32S302.312 64 320 64H352C369.656 64 384 78.344 384 96S369.656 128 352 128H32C14.312 128 0 142.312 0 160S14.312 192 32 192H352C404.938 192 448 148.938 448 96S404.938 0 352 0Z" class="fa-primary"/></svg>

<svg xmlns="http://www.w3.org/2000/svg" viewBox="0 0 512 512"><!--! Font Awesome Pro 6.4.0 by @fontawesome - https://fontawesome.com License - https://fontawesome.com/license (Commercial License) Copyright 2023 Fonticons, Inc. --><defs><style>.fa-secondary{opacity:.4}</style></defs><path class="fa-primary" d="M320 0c-17.7 0-32 14.3-32 32s14.3 32 32 32h32c17.7 0 32 14.3 32 32s-14.3 32-32 32H32c-17.7 0-32 14.3-32 32s14.3 32 32 32H352c53 0 96-43 96-96s-43-96-96-96H320zM128 512h32c53 0 96-43 96-96s-43-96-96-96H32c-17.7 0-32 14.3-32 32s14.3 32 32 32H160c17.7 0 32 14.3 32 32s-14.3 32-32 32H128c-17.7 0-32 14.3-32 32s14.3 32 32 32z"/><path class="fa-secondary" d="M352 384c0 17.7 14.3 32 32 32h32c53 0 96-43 96-96s-43-96-96-96H32c-17.7 0-32 14.3-32 32s14.3 32 32 32H416c17.7 0 32 14.3 32 32s-14.3 32-32 32H384c-17.7 0-32 14.3-32 32z"/></svg>
